icon-themes/sifr_svg/cmd/sc_addfield.svg

<svg viewBox="0 0 16 16" xmlns="http://www.w3.org/2000/svg"><path d="m3.4316406 7 .5683594.6035156v1.7929688l-.5683594.6035156h10.5683594v-3z" fill="#565653" fill-opacity=".35"/><path d="m2 2v3.4824219l1.2569581 1.3324099.1746825.1851682h10.5683594v3h-3-1-6.5683594l-1.4316406 1.517578v2.482422 1h8 1 4v-1-12h-12zm1 1h3v3h-3zm4 0h3v3h-3zm4 0h3v3h-3zm-11 3v5h.75c.19897 0 .3979325-.06203.5390625-.1875l1.7109375-1.8125v-1l-1.7109375-1.8125c-.14113-.1254-.3400825-.18748-.5390625-.1875zm3 5h3v3h-3zm4 0h3v3h-3zm4 0h3v3h-3z" fill="#555753"/></svg>

<svg xmlns="http://www.w3.org/2000/svg" viewBox="0 0 16 16">
  <path
     style="fill:#565653;fill-opacity:0.35"
     d="M 3.4316406 7 L 4 7.6035156 L 4 9.3964844 L 3.4316406 10 L 14 10 L 14 7 L 3.4316406 7 z "
     />
  <path
     style="fill:#555753"
     d="M 2,2 V 5.4824219 L 3.2569581,6.8148318 3.4316406,7 H 14 v 3 H 11 10 3.4316406 L 2,11.517578 V 14 15 h 8 1 4 V 14 2 H 3 Z M 3,3 H 6 V 6 H 3 Z m 4,0 h 3 V 6 H 7 Z m 4,0 h 3 V 6 H 11 Z M 0,6 v 5 h 0.75 c 0.19897,0 0.3979325,-0.06203 0.5390625,-0.1875 L 3,9 V 8 L 1.2890625,6.1875 C 1.1479325,6.0621 0.94898,6.00002 0.75,6 Z m 3,5 h 3 v 3 H 3 Z m 4,0 h 3 v 3 H 7 Z m 4,0 h 3 v 3 h -3 z"
     />
</svg>
